src/icons/svg/twitter.svg

<!--category:social-->
<!--character:E131-->
<svg width="24" height="24" viewBox="0 0 24 24" version="1.1" xmlns="http://www.w3.org/2000/svg"><path d="M17.4659375,6.17707692 C18.0658594,6.12646154 18.8457031,5.79638462 19.3050781,5.56646154 C19.4538281,5.48623077 19.6025781,5.406 19.7513281,5.32576923 C19.489375,6.02415385 19.1339062,6.57069231 18.5864844,6.98530769 C18.4650781,7.07738462 18.3447656,7.20176923 18.1927344,7.26046154 C18.9720312,7.261 19.6140625,6.91530769 20.2249219,6.72738462 C19.9039062,7.23784615 19.4702344,7.74669231 19.0070312,8.11176923 C18.8205469,8.25769231 18.6335156,8.40415385 18.4464844,8.55007692 C18.456875,9.36261538 18.4344531,10.1374615 18.2802344,10.8202308 C17.3833594,14.7881538 15.0077344,17.4820769 11.246875,18.636 C9.89609375,19.0500769 7.7140625,19.2202308 6.16695312,18.8422308 C5.3996875,18.6543077 4.70625,18.4426923 4.05601562,18.1626923 C3.69453125,18.0076154 3.35984375,17.8390769 3.03992187,17.6468462 C2.93492187,17.5838462 2.829375,17.5208462 2.72492187,17.4578462 C3.07382812,17.4680769 3.48179687,17.5628462 3.87226562,17.5009231 C4.225,17.4443846 4.57117187,17.4594615 4.8965625,17.3889231 C5.70921875,17.2139231 6.43,16.9818462 7.05125,16.6237692 C7.35257812,16.4503846 7.80976562,16.2463077 8.02359375,15.9959231 C7.62054687,16.0034615 7.2546875,15.9108462 6.955,15.8069231 C5.7934375,15.4030769 5.1175,14.6610769 4.6778125,13.5453846 C5.02945312,13.5836154 6.04335937,13.6735385 6.28070312,13.477 C5.8371875,13.4527692 5.41171875,13.2002308 5.10710937,13.0128462 C4.17304687,12.4372308 3.41070312,11.4717692 3.41671875,9.98615385 C3.53921875,10.0437692 3.66171875,10.1008462 3.78476562,10.1579231 C4.01882812,10.2553846 4.2578125,10.3076154 4.5378125,10.3641538 C4.6559375,10.3883846 4.8921875,10.4567692 5.0278125,10.4072308 C4.82984375,10.1999231 4.535625,10.0620769 4.35351562,9.83969231 C3.75414062,9.10630769 3.1925,7.97715385 3.54796875,6.63261538 C3.63820312,6.29176923 3.7809375,5.99023077 3.93351562,5.71238462 C4.02046875,5.86530769 4.17632812,5.97084615 4.27476562,6.09092308 C4.58101562,6.46461538 4.95890625,6.80061538 5.34335937,7.09730769 C6.65476562,8.10692308 7.83546875,8.72669231 9.73148437,9.18653846 C10.2127344,9.30284615 10.7689062,9.39169231 11.343125,9.39276923 C11.1817969,8.93023077 11.23375,8.18123077 11.360625,7.73323077 C11.6805469,6.60676923 12.3745312,5.79530769 13.3928125,5.36023077 C13.6361719,5.25630769 13.9063281,5.18038462 14.1896094,5.11953846 C14.3361719,5.10230769 14.4816406,5.08507692 14.6276562,5.06784615 C16.0183594,5.04361538 16.7588281,5.54276923 17.4659375,6.17707692 Z" id="path-1"></path></svg>

<!--category:social-->
<!--character:E131-->
<svg width="24" height="24" viewBox="0 0 24 24" xmlns="http://www.w3.org/2000/svg"><path d="M17.466 6.177c.5999-.0505 1.3797-.3806 1.839-.6105l.4463-.2407c-.262.6984-.6174 1.2449-1.1648 1.6595-.1214.092-.2417.2165-.3938.2752.7793.0005 1.4214-.3452 2.0322-.5331-.321.5104-.7547 1.0193-1.2179 1.3844-.1865.1459-.3735.2924-.5605.4383.0104.8125-.012 1.5874-.1663 2.2701-.8968 3.968-3.2725 6.6619-7.0333 7.8158-1.3508.414-3.5328.5842-5.08.2062-.7672-.1879-1.4607-.3995-2.1109-.6795-.3615-.155-.6962-.3236-1.016-.5159-.105-.063-.2106-.126-.315-.189.3488.0103.7568.105 1.1473.0431.3527-.0565.6989-.0414 1.0243-.112.8126-.175 1.5334-.407 2.1546-.7651.3014-.1734.7586-.3775.9724-.6279-.403.0076-.769-.085-1.0686-.189-1.1616-.4038-1.8375-1.1458-2.2772-2.2615.3517.0382 1.3656.1281 1.6029-.0684-.4435-.0242-.869-.2768-1.1736-.4642-.934-.5756-1.6964-1.541-1.6904-3.0266.1225.0576.245.1146.368.1717.2341.0975.4731.1497.7531.2063.1181.0242.3544.0926.49.043-.198-.2073-.4922-.3451-.6743-.5675-.5994-.7334-1.161-1.8625-.8055-3.207.0902-.341.233-.6425.3855-.9203.087.153.2428.2584.3413.3785.3062.3737.6841.7097 1.0686 1.0064 1.3114 1.0096 2.492 1.6294 4.388 2.0892.4813.1163 1.0375.2052 1.6117.2063-.1613-.4626-.1093-1.2116.0175-1.6596.32-1.1264 1.014-1.9379 2.0322-2.373.2434-.1039.5135-.1798.7968-.2407.1466-.0172.292-.0344.438-.0517 1.3908-.0242 2.1312.475 2.8383 1.1093z"/></svg>
